icons/24x24_export_outline.svg

<svg xmlns="http://www.w3.org/2000/svg" width="24" height="24" viewBox="0 0 24 24">
  <path fill-rule="evenodd" d="M17,10 L17,8 L18,8 C19.6568542,8 21,9.34314575 21,11 L21,19 C21,20.6568542 19.6568542,22 18,22 L6,22 C4.34314575,22 3,20.6568542 3,19 L3,11 C3,9.34314575 4.34314575,8 6,8 L7,8 L7,10 L6,10 C5.44771525,10 5,10.4477153 5,11 L5,19 C5,19.5522847 5.44771525,20 6,20 L18,20 C18.5522847,20 19,19.5522847 19,19 L19,11 C19,10.4477153 18.5522847,10 18,10 L17,10 Z M10.9551845,5.95272695 L9.78361162,7.11045387 C9.37558579,7.51365754 8.71404521,7.51365754 8.30601937,7.11045387 C7.89799354,6.70725019 7.89799354,6.05352787 8.30601937,5.65032419 L12,2 L15.6939806,5.65032419 C16.1020065,6.05352787 16.1020065,6.70725019 15.6939806,7.11045387 C15.2859548,7.51365754 14.6244142,7.51365754 14.2163884,7.11045387 L13.0448155,5.95272695 L13.0448155,13.9675324 C13.0448155,14.5377485 12.5770357,15 12,15 C11.4229643,15 10.9551845,14.5377485 10.9551845,13.9675324 L10.9551845,5.95272695 Z"/>
</svg>

<svg width="24" height="24" fill="none" xmlns="http://www.w3.org/2000/svg"><path fill-rule="evenodd" clip-rule="evenodd" d="M17 10V8h1a3 3 0 0 1 3 3v8a3 3 0 0 1-3 3H6a3 3 0 0 1-3-3v-8a3 3 0 0 1 3-3h1v2H6a1 1 0 0 0-1 1v8a1 1 0 0 0 1 1h12a1 1 0 0 0 1-1v-8a1 1 0 0 0-1-1h-1Zm-6.045-4.047L9.784 7.11a1.054 1.054 0 0 1-1.478 0 1.024 1.024 0 0 1 0-1.46L12 2l3.694 3.65a1.024 1.024 0 0 1 0 1.46 1.054 1.054 0 0 1-1.478 0l-1.171-1.157v8.014A1.04 1.04 0 0 1 12 15a1.039 1.039 0 0 1-1.045-1.033V5.954Z" fill="#000"/></svg>
